**kern	**kern	**dynam
*part1	*part1	*part1
*staff2	*staff1	*
*I"Piano	*	*
*clefF4	*clefG2	*
*k[f#c#g#d#a#]	*k[f#c#g#d#a#]	*
=1	=1	=1
4An	8d#L 8f#	>
.	8B	.
4A	8d# 8f#	.
.	8B	.
4BB	8d# 8f##X	.
.	8BJ	.
=	=	=
!	!LO:TX:a:i:t=legato	!
4EE	8g#L	] mf
.	8e	.
4BB	8B	.
.	8G#	.
4E	8B	.
.	8eJ	.
=	=	=
4CC#	8cc#L	.
.	8g#	.
4GG#	8e	.
.	8c#	.
4C#	8e	.
.	8g#J	.
=	=	=
4GG#	8bL	.
.	8g#	.
4D#	8d#	.
.	8B	.
4G#	8d#	.
.	8g#J	.
=	=	=
4GG#	8bL	.
.	8g#	.
4D#	8d#	.
.	8B	.
4G#	8d#	.
.	8g#J	.
=	=	=
4GG#	8bL	.
.	8e#X	.
4C#	8c#	.
.	8B	.
4G#	8c#	.
.	8e#J	.
=	=	=
4GGn	8bL	.
.	8e#X	.
4C#	8c#	.
.	8B	.
4Gn	8c#	.
.	8e#J	.
=	=	=
*-	*-	*-
!!!system-decoration: {(s1,s2)}
